X: 30447
T: Old Walls Of Liscarroll, The
R: jig
M: 6/8
K: Adorian
|:ABA DEG|AGE Adc|A EE c EE|G EE DEG|
ABA DEG|AGE Adc|A EE c EE|DED D3:|
|:Adc ABc|d2 e dcA|G EE c EE|G EE DEG|
Adc ABc|1 d2 e dcA|G EE c EE|DED D3:|
[2 def dcA|G EE c EE|DED D3||

